X:1
T:Abendgang im Lenz
T:Abendgang im Lenz
T:Drei Gesänge für vierstimmigen Frauenchor op. 111b
T:Max Reger
T:Hedwig Kiesekamp
C:Max Reger
Z:Hedwig Kiesekamp
%%score [ 1 2 3 4 ]
L:1/8
Q:1/4=76
M:3/4
K:F
V:1 treble nm="S1"
V:2 treble nm="S2"
V:3 treble nm="A1"
V:4 treble nm="A2"
V:1
"^Andante"!p!!<(! c4 c2 | =B4 B2!<)! | (c2 d2) e2 |!>(! f4 f2!>)! |!p! e4 z2 | z6 | z2 _G2 _A2 | %7
w: Se- lig,|se- lig|durch _ die|Flu- ren|gehn,||wenn der|
!>(! (=A2 _B2) =B2!>)! |!p! c4 z2 |!f! f4 f2 | (e2 d2)!>(! c2 | d4 c2 | c4!>)! z2 | %13
w: Tag _ ver-|glüht,|leuch- tend|in _ des|A- bends|Schein,|
!f! (=B2 e2) d2 |!>(! ^c4"^poco rit." d2 | (G4 ^G2)!>)! |!p!"^a tempo"!<(! (A2 B2) =B2!<)! | %17
w: weiß _ der|Birn- baum|blüht, _|se- * lig|
 (=B2 c2) e2 |!>(! d4 d2!>)! |!p! c4 !fermata!z2 |!pp!!<(! e4 e2 | ^f4 f2!<)! | %22
w: durch _ die|Flu- ren|gehn!|Hoch in|Wi- pfeln|
"^poco rit." ^c4 c2 |!>(! (^d4 e2)!>)! |!pp!"^a tempo" (e4 =d2) | d4 c2 |!>(! (c2 =B2) B2 | %27
w: fei- er-|lich, _|süß, _|süß die|Dros- * sel|
 =B4!>)! z2 |!mf!!<(! (c2 =e2) d2 | c4 c2!<)! |!ff! (_e2 f2 e2 | d2!>(! c2) B2 | (B6- | %33
w: singt;|wie _ der|gan- ze|Früh- * *|* * lings-|traum,|
 B4 A2)!>)! | z2!mf!!<(! A2 (Gd)!<)! |!>(! d4 c2 | c4!>)!!pp! f2- | f4 f2 | (e2 d2) c2 | (d4 c2) | %40
w: _ _|ach, im _|Lie- de|klingt! Se-|* lig,|se- * lig,|se- *|
 c4 z2 |!<(! (=B2 e2) d2 | (^c2 f2) e2!<)! |"^sempre rit." (d2 =c2)!>(! B2 | A4 G2!>)! | %45
w: lig,|se- * lig,|se- * lig|durch _ die|Flu- ren|
!pp! !fermata!F6 |] %46
w: gehn!|
V:2
!p!!<(! c4 c2 | d4 d2!<)! | c4 c2 |!>(! (c2 A2) =B2!>)! |!p! c4 z2 | z6 | z2 _G2 G2 | %7
w: Se- lig,|se- lig|durch die|Flu- * ren|gehn,||wenn der|
!>(! F4 G2!>)! |!p! G4 z2 |!f! d4 d2 | (c2 B2)!>(! G2 | B4 A2 | A4!>)! z2 |!f! (G2 =B2) B2 | %14
w: Tag ver-|glüht,|leuch- tend|in _ des|A- bends|Schein,|weiß _ der|
!>(! G4"^poco rit." G2 | G4 z2!>)! |!p!"^a tempo"!<(! G4 G2!<)! | G4 (c=B) |!>(! A4 =B2!>)! | %19
w: Birn- baum|blüht,|se- lig|durch die _|Flu- ren|
!p! G4 !fermata!z2 |!pp!!<(! ^c4 c2 | ^c4 c2!<)! |"^poco rit." A4 _B2 |!>(! B6!>)! | %24
w: gehn!|Hoch in|Wi- pfeln|fei- er-|lich,|
!pp!"^a tempo" B6 | B4 A2 |!>(! (A2 G2) G2 | _A4!>)! z2 |!mf!!<(! A4 A2 | (G2 A2) G2!<)! | %30
w: süß,|süß die|Dros- * sel|singt;|wie der|gan- * ze|
!ff! (c6 | B2!>(! A2) B2 | (_G6- | G6)!>)! | z2!mf!!<(! F2 F2!<)! |!>(! =G4 G2 | _G2 F2!>)! z2 | %37
w: Früh-|* * lings-|traum,|_|ach, im|Lie- de|klingt! _|
!pp! d4 d2 | (c2 B2) G2 | (B4 A2) | A4 z2 |!<(! (G2 =B2) B2 | (A2 ^c2) c2!<)! | %43
w: Se- lig,|se- * lig,|se- *|lig,|se- * lig,|se- * lig|
"^sempre rit." (d2 A2)!>(! G2 | F4 =E2!>)! |!pp! !fermata!C6 |] %46
w: durch _ die|Flu- ren|gehn!|
V:3
!p!!<(! A4 A2 | _A4 A2!<)! | G4 G2 |!>(! G4 G2!>)! |!p! G4 z2 | z2 _E2 F2 | (_G4 _E2 | %7
w: Se- lig,|se- lig|durch die|Flu- ren|gehn,|wenn der|Tag _|
!>(! F4) F2!>)! |!p! E4 z2 |!f! (B2 A2) G2 | (G2 F2)!>(! E2 | (G2 F2) E2 | _E4!>)! z2 | %13
w: _ ver-|glüht,|leuch- * tend|in _ des|A- * bends|Schein,|
!f! (D2 G2) F2 |!>(! E4"^poco rit." F2 | (F2 D2 E2)!>)! |!p!"^a tempo"!<(! E4 F2!<)! | G4 G2 | %18
w: weiß _ der|Birn- baum|blüht, _ _|se- lig|durch die|
!>(! (G2 E2) F2!>)! |!p! E4 !fermata!z2 |!pp!!<(! A4 A2 | A4 A2!<)! |"^poco rit." (A2 ^G2) =G2 | %23
w: Flu- * ren|gehn!|Hoch in|Wi- pfeln|fei- * er-|
!>(! G6!>)! |!pp!"^a tempo" (G4 =F2) | F4 E2 |!>(! F4 F2 | F4!>)! z2 |!mf!!<(! F4 F2 | E4 E2!<)! | %30
w: lich,|süß, _|süß die|Dros- sel|singt;|wie der|gan- ze|
!ff! (^F6 | =F2!>(! _E2) F2 | (_G2 _E4- | E6)!>)! | z2!mf!!<(! D2 D2!<)! |!>(! E4 E2 | _E4!>)! z2 | %37
w: Früh-|* * lings-|traum, _|_|ach, im|Lie- de|klingt!|
!pp! (B2 A2) G2 | (G2 F2) E2 | (F4 E2) | _E4 z2 |!<(! (D2 G2) F2 | (=E2 A2) G2!<)! | %43
w: Se- * lig,|se- * lig,|se- *|lig,|se- * lig,|se- * lig|
"^sempre rit." (F2 _E2)!>(! D2 | D4 _B,2!>)! |!pp! !fermata!A,6 |] %46
w: durch _ die|Flu- ren|gehn!|
V:4
!p!!<(! F4 F2 | F4 F2!<)! | E4 E2 |!>(! D4 D2!>)! |!p! C2 C2 D2 | (_E6- | E6 |!>(! D4) _D2!>)! | %8
w: Se- lig,|se- lig|durch die|Flu- ren|gehn, wenn der|Tag|_|* ver-|
!p! C4 z2 |!f! B,4 B,2 | B,4!>(! (B,A,) | G,4 G,2 | ^F,4!>)! z2 |!f! G,4 G,2 | %14
w: glüht,|leuch- tend|in des _|A- bends|Schein,|weiß der|
!>(! B,4"^poco rit." =B,2 | C6!>)! |!p!"^a tempo"!<(! ^C4 D2!<)! | E4 A,2 |!>(! D4 G,2!>)! | %19
w: Birn- baum|blüht,|se- lig|durch die|Flu- ren|
!p! C4 !fermata!z2 |!pp!!<(! (A2 ^G2) =G2 | ^F4 F2!<)! |"^poco rit." (^F2 =F2) =E2 | %23
w: gehn!|Hoch _ in|Wi- pfeln|fei- * er-|
!>(! (_E4 _D2)!>)! |!pp!"^a tempo" (C2 G,4) | (C2 G,2) A,2 |!>(! D4 D2 | _D4!>)! z2 | %28
w: lich, _|süß, _|süß _ die|Dros- sel|singt;|
!mf!!<(! C4 C2 | B,4 B,2!<)! |!ff! (A,6 | B,2!>(! C2) D2 | (_E4 _D2 | C6)!>)! | %34
w: wie der|gan- ze|Früh-|* * lings-|traum, _|_|
 z2!mf!!<(! =B,2 B,2!<)! |!>(! _B,4 B,2 | A,4!>)! z2 |!pp! B,4 B,2 | B,4 (B,A,) | (G,4 A,G,) | %40
w: ach, im|Lie- de|klingt!|Se- lig,|se- lig, _|se- * *|
 ^F,4 z2 |!<(! G,4 ^G,2 | A,4 A,2!<)! |"^sempre rit." B,4!>(! B,2 | =B,4 C2!>)! | %45
w: lig,|se- lig,|se- lig|durch die|Flu- ren|
!pp! !fermata!F,6 |] %46
w: gehn!|

